X:1
T:I'll Never Smile Again
T:I'll Never Smile Again
C:Ruth Lowe
Z:All Rights Reserved
L:1/4
M:4/4
K:Eb
V:1 treble nm="Voice"
%%MIDI program 52
V:1
 z"Gm7" B"Gbdim7" d c |"Fm7" e3/2 F/ F2 |"Bb7" z/ F/F/G/ F E |"Ebmaj7" G4- |"Gm7" G B"Gbdim7" d c | %5
w: I'll nev- er|smile a- gain|un- til I smile with|you.|* I'll nev- er|
"Fm7" e3 F/F/- |"B7" F G"Bb7" (3G F D |"Eb6" C4- | C3 C |"B+7" G G"Bb7" G G |"Eb6" E3 G | %11
w: laugh a- gain,|* What good would it|do?|* For|tears would fill my|eyes my|
"Fm7b5" B B"Bb+7" B B |"Ebmaj7" G3"D9" =B |"G" d d"D7" d2- |"G" d2"Gbdim7" d2 |"Fm7" B4- | %16
w: heart would re- al-|ize that|our ro- mance|* is|through.|
"Bb7" B B"Gm7" d"Gbdim7" c |"Fm7" e3/2 F/ F2- |"Bb7" F/F/F/G/ F E |"Ebmaj7""Fm7" G4- | %20
w: * I'll nev- er|love a- gain|* I'm so in love with|you.|
"Gm7" G B"Gbdim7" d c |"Fm7" e3/2 F/ F2- |"Bb7" F G (3F E D |"Eb7" G4- | G2 z E | %25
w: * I'll nev- er|thrill a- gain|* to some- bod- y|new.|* With-|
"Abmaj7" G3"Ab6" F |"D9" A3 G |"Ebmaj7/G" (3D E G B c |"Gm7" d3"C7" c |"Fm7" e3/2 F/ F2 | %30
w: in my|heart I|know I will nev- er|start to|smile a- gain,|
 z/ C/D/E/"B+7" G"Bb7" G |"Eb6" E4- | E z z2 |] %33
w: un- til I smile at|you.||

